X:12364
T:Old Pigeon on the Gate, The
R:reel
H:Also played in G, see #314
D:De Danann: Jacket of Batteries
Z:id:hn-reel-400
M:C|
K:A
A2cA eAcA|G2BG eGBG|A2cA eAcA|1 dcBA GBEG:|2 dcBA GBdB||
ce~e2 cA~A2|Bcde ~f3e|ceae cABc|dcBA GE~E2|
ceae cA~A2|Bcde ~f3e|ceae cABc|dcBA GBEG||
